markets/USDT.svg

<svg width="42" height="42" viewBox="0 0 42 42" fill="none" xmlns="http://www.w3.org/2000/svg">
<g clip-path="url(#clip0_7277_55559)">
<path d="M21 0C32.599 0 42 9.40284 42 21C42 32.599 32.599 42 21 42C9.40284 42 0 32.5981 0 21C0 9.40284 9.40284 0 21 0Z" fill="#50AF95"/>
<path fill-rule="evenodd" clip-rule="evenodd" d="M23.6573 23.3772C23.5089 23.3883 22.7417 23.4341 21.0304 23.4341C19.6693 23.4341 18.7029 23.3932 18.3639 23.3772C13.1038 23.1458 9.17765 22.2301 9.17765 21.1338C9.17765 20.0375 13.1038 19.1231 18.3639 18.888V22.4652C18.7079 22.49 19.6928 22.5481 21.0539 22.5481C22.6872 22.5481 23.5051 22.4801 23.6524 22.4664V18.8905C28.9013 19.1243 32.8188 20.04 32.8188 21.1338C32.8188 22.2276 28.9025 23.1433 23.6524 23.3759L23.6573 23.3772ZM23.6573 18.5205V15.3194H30.9826V10.438H11.0387V15.3194H18.3626V18.5192C12.4097 18.7927 7.93286 19.9719 7.93286 21.385C7.93286 22.7981 12.4097 23.976 18.3626 24.2507V34.5085H23.6561V24.247C29.5955 23.9736 34.0648 22.7956 34.0648 21.3838C34.0648 19.9719 29.5992 18.7939 23.6561 18.5192L23.6573 18.5205Z" fill="white"/>
</g>
<defs>
<clipPath id="clip0_7277_55559">
<rect width="42" height="42" fill="white"/>
</clipPath>
</defs>
</svg>

<svg xmlns="http://www.w3.org/2000/svg" width="42" height="42" fill="none"><g clip-path="url(#a)"><path fill="#50AF95" d="M21 0c11.599 0 21 9.403 21 21 0 11.599-9.401 21-21 21C9.403 42 0 32.598 0 21 0 9.403 9.403 0 21 0Z"/><path fill="#fff" fill-rule="evenodd" d="M23.657 23.377c-.148.011-.915.057-2.627.057-1.36 0-2.327-.04-2.666-.057-5.26-.231-9.186-1.147-9.186-2.243 0-1.096 3.926-2.01 9.186-2.246v3.577c.344.025 1.329.083 2.69.083 1.633 0 2.451-.068 2.598-.082V18.89c5.25.234 9.167 1.15 9.167 2.244 0 1.094-3.917 2.01-9.167 2.242l.005.001Zm0-4.857v-3.2h7.326v-4.882H11.039v4.881h7.324v3.2c-5.953.274-10.43 1.453-10.43 2.866s4.477 2.591 10.43 2.866v10.257h5.293V24.247c5.94-.273 10.409-1.451 10.409-2.863s-4.466-2.59-10.409-2.865l.001.002Z" clip-rule="evenodd"/></g><defs><clipPath id="a"><path fill="#fff" d="M0 0h42v42H0z"/></clipPath></defs></svg>
